src/icons/services/analytics.svg

<svg width="52" height="52" viewBox="0 0 52 52" fill="none" xmlns="http://www.w3.org/2000/svg">
<path d="M48.7501 44.8501H44.3626V28.8438C44.3626 26.2438 42.2501 24.2126 39.7313 24.2126H35.0188C32.4188 24.2126 30.3876 26.3251 30.3876 28.8438V44.8501H25.5126V16.5751C25.5126 13.9751 23.4001 11.9438 20.8813 11.9438H16.1688C13.5688 11.9438 11.5376 14.0563 11.5376 16.5751V44.8501H5.11885V5.28135C5.11885 4.30635 4.30635 3.4126 3.2501 3.4126C2.19385 3.4126 1.38135 4.2251 1.38135 5.28135V45.0126C1.38135 46.8813 2.9251 48.5063 4.8751 48.5063H48.7501C49.7251 48.5063 50.6188 47.6938 50.6188 46.6376C50.6188 45.5813 49.7251 44.8501 48.7501 44.8501ZM15.1938 44.8501V16.5751C15.1938 16.0063 15.6813 15.6001 16.1688 15.6001H20.8813C21.4501 15.6001 21.8563 16.0876 21.8563 16.5751V44.8501H15.1938ZM34.0438 44.8501V28.8438C34.0438 28.2751 34.5313 27.8688 35.0188 27.8688H39.7313C40.3001 27.8688 40.7063 28.3563 40.7063 28.8438V44.8501H34.0438Z" fill="#9D74D3"/>
</svg>

<svg xmlns="http://www.w3.org/2000/svg" width="52" height="52" fill="none"  ><path d="M48.75 44.85h-4.388V28.844a4.63 4.63 0 0 0-4.631-4.631h-4.712a4.63 4.63 0 0 0-4.631 4.631V44.85h-4.875V16.575a4.63 4.63 0 0 0-4.631-4.631h-4.712a4.63 4.63 0 0 0-4.631 4.631V44.85H5.119V5.281c0-.975-.812-1.869-1.869-1.869s-1.869.813-1.869 1.869v39.731c0 1.869 1.544 3.494 3.494 3.494H48.75c.975 0 1.869-.812 1.869-1.869s-.894-1.788-1.869-1.788zm-33.556 0V16.575a.99.99 0 0 1 .975-.975h4.712a.99.99 0 0 1 .975.975V44.85h-6.663zm18.85 0V28.844a.99.99 0 0 1 .975-.975h4.712a.99.99 0 0 1 .975.975V44.85h-6.663z" fill="#9d74d3"/></svg>
